packages/icons/src/sticky-note.svg

<svg xmlns="http://www.w3.org/2000/svg" width="24" height="24" fill="none" viewBox="0 0 24 24">
  <path fill="#000" d="M19 5v9h-5v5H5V5h14Zm0-2H5c-1.1 0-2 .9-2 2v14c0 1.1.9 2 2 2h10l6-6V5c0-1.1-.9-2-2-2Zm-7 11H7v-2h5v2Zm5-4H7V8h10v2Z"/>
</svg>

<svg width="24" height="24" viewBox="0 0 24 24" fill="none" xmlns="http://www.w3.org/2000/svg">
<path d="M19 5V14H14V19H5V5H19ZM19 3H5C3.9 3 3 3.9 3 5V19C3 20.1 3.9 21 5 21H15L21 15V5C21 3.9 20.1 3 19 3ZM12 14H7V12H12V14ZM17 10H7V8H17V10Z" fill="black"/>
</svg>
